packages/vibrant-icons/assets/icons/VolumeMute/Fill.svg

<svg width="24" height="24" viewBox="0 0 24 24" fill="none" xmlns="http://www.w3.org/2000/svg">
<path d="M7.20448 5.64899L2.95454 1.39906C2.85691 1.30143 2.69862 1.30143 2.60099 1.39906L1.39891 2.60114C1.30128 2.69877 1.30128 2.85706 1.39891 2.95469L21.0454 22.6011C21.143 22.6988 21.3013 22.6988 21.3989 22.6011L22.601 21.3991C22.6986 21.3014 22.6986 21.1431 22.601 21.0455L19.1 17.5445V1.4977C19.1 1.30338 18.888 1.18335 18.7214 1.28333L11.4455 5.64899H7.20448Z" fill="#0C0C0C"/>
<path d="M13.6815 20.2953C13.7258 20.3308 13.7809 20.3501 13.8377 20.3501H15.3115C15.4896 20.3501 15.5789 20.1347 15.4529 20.0087L3.89999 8.45577V18.099C3.89999 18.2371 4.01192 18.349 4.14999 18.349H11.25L13.6815 20.2953Z" fill="#0C0C0C"/>
</svg>

<svg xmlns="http://www.w3.org/2000/svg" width="24" height="24" fill="none"><path fill="#0C0C0C" d="m7.204 5.649-4.25-4.25a.25.25 0 0 0-.353 0L1.399 2.601a.25.25 0 0 0 0 .354L21.045 22.6a.25.25 0 0 0 .354 0L22.6 21.4a.25.25 0 0 0 0-.354l-3.501-3.5V1.497a.25.25 0 0 0-.379-.215L11.445 5.65zM13.682 20.295a.25.25 0 0 0 .156.055h1.474a.2.2 0 0 0 .14-.341L3.9 8.456v9.643c0 .138.112.25.25.25h7.1z"/></svg>
